docroot/modules/custom/liberty_claims/img/icon-pdf.svg

<?xml version="1.0" encoding="UTF-8"?>
<svg width="16px" height="22px" viewBox="0 0 16 22" version="1.1" xmlns="http://www.w3.org/2000/svg" xmlns:xlink="http://www.w3.org/1999/xlink">
    <!-- Generator: Sketch 59.1 (86144) - https://sketch.com -->
    <title>Icon/PDF</title>
    <desc>Created with Sketch.</desc>
    <defs>
        <path d="M1.11184702,0 L1.11184702,20.8531098 L14.8890076,20.8531098 L14.8890076,1.26069696 L2.29633586,1.23423026 L2.29804508,0.087340097 L14.9830146,0.113806793 C15.5436385,0.114689016 16,0.587560653 16,1.16541685 L16,20.9492722 C16,21.5288928 15.5427839,22 14.9813054,22 L1.01869458,22 C0.457216109,22 0,21.5288928 0,20.9492722 L0,0 L1.11184702,0 Z M8.05751522,14.3784738 C9.32746501,14.3784738 10.0752484,14.9836789 10.0752484,16.3943538 L10.0752484,16.3943538 L10.0752484,16.5293339 C10.0752484,17.9064843 9.39241534,18.6122629 8.05751522,18.6122629 L8.05751522,18.6122629 L6.62518962,18.6122629 L6.62518962,14.3784738 Z M13.2654204,14.3784738 L13.2654204,15.0507278 L11.5399637,15.0507278 L11.5399637,16.1932069 L12.907339,16.1932069 L12.907339,16.8989854 L11.5399637,16.8989854 L11.5399637,18.6122629 L10.6289499,18.6122629 L10.6289499,14.3784738 L13.2654204,14.3784738 Z M4.64070078,14.3449493 C5.68161521,14.3449493 6.16959727,14.8486987 6.16959727,15.6894574 C6.16959727,16.6299074 5.61666489,17.1001323 4.67317594,17.1001323 L4.67317594,17.1001323 L3.9894883,17.0666079 L3.9894883,18.5787384 L3.07847452,18.5787384 L3.07847452,14.3449493 Z M8.05751522,15.0842523 L7.56953317,15.0842523 L7.56953317,17.9400088 L8.08999039,17.9400088 C8.80615319,17.9400088 9.13175943,17.5703573 9.13175943,16.5963829 L9.13175943,16.5963829 L9.13175943,16.3943538 C9.13175943,15.3868549 8.74120286,15.0842523 8.05751522,15.0842523 L8.05751522,15.0842523 Z M4.54242068,15.0507278 L4.02196347,15.0507278 L4.02196347,16.462285 L4.54242068,16.462285 C5.03125734,16.462285 5.22610832,16.2267314 5.22610832,15.7565064 C5.22610832,15.2183502 5.03125734,15.0507278 4.54242068,15.0507278 L4.54242068,15.0507278 Z" id="path-1"></path>
    </defs>
    <g id="DSK-Siniestros" stroke="none" stroke-width="1" fill="none" fill-rule="evenodd">
        <g id="7.-Claims-Insured-Thanks" transform="translate(-519.000000, -1208.000000)">
            <g id="Group-16" transform="translate(515.000000, 1205.000000)">
                <g id="Group-25">
                    <g id="Group-10" transform="translate(0.000000, 2.000000)">
                        <g id="Icon/PDF">
                            <g id="Color/Liberty-Blue" transform="translate(4.000000, 1.000000)">
                                <mask id="mask-2" fill="white">
                                    <use xlink:href="#path-1"></use>
                                </mask>
                                <use id="Mask" fill="#1A1446" fill-rule="nonzero" xlink:href="#path-1"></use>
                                <g id="Color/Medium" mask="url(#mask-2)" fill="#28A3AF">
                                    <g transform="translate(-44.000000, -43.000000)" id="Rectangle-Copy-8">
                                        <polygon points="0 0 101 0 101 97 0 97"></polygon>
                                    </g>
                                </g>
                            </g>
                        </g>
                    </g>
                </g>
            </g>
        </g>
    </g>
</svg>

<svg xmlns="http://www.w3.org/2000/svg" xmlns:xlink="http://www.w3.org/1999/xlink" viewBox="0 0 16 22">
  <defs>
    <clipPath id="clip-path">
      <path id="Mask" d="M1.019,22A1.036,1.036,0,0,1,0,20.949V0H1.112V20.853H14.889V1.261L2.3,1.234,2.3.087,14.983.113A1.038,1.038,0,0,1,16,1.166V20.949A1.036,1.036,0,0,1,14.981,22Zm9.61-3.388V14.378h2.636v.672H11.54v1.142h1.367V16.9H11.54v1.713Zm-4,0V14.378H8.058a1.788,1.788,0,0,1,2.018,2.016v.135a1.818,1.818,0,0,1-2.018,2.083Zm.945-.672h.52c.74,0,1.041-.39,1.041-1.344v-.2c0-.919-.321-1.31-1.074-1.31H7.57Zm-3.581.639h-.91V14.345H4.64c1,0,1.529.465,1.529,1.345a1.313,1.313,0,0,1-1.5,1.41l-.683-.033v1.511h0Zm.033-2.117h.52c.473,0,.684-.218.684-.706,0-.521-.179-.706-.684-.706h-.52Z" fill="#006729"/>
    </clipPath>
  </defs>
  <g id="Color_Liberty_Blue" data-name="Color/Liberty Blue" clip-path="url(#clip-path)">
    <g id="Color_Liberty_Blue-2" data-name="Color/Liberty Blue" transform="translate(-44 -43)">
      <rect id="Rectangle_Copy_8" data-name="Rectangle Copy 8" width="101" height="97" fill="#006729"/>
    </g>
  </g>
</svg>
